X:42
T: Frisch auf, in Gottes Namen!
N: A0398B
O: Europa, Mitteleuropa, Deutschland
N: Werlin (Hs. von 1646) S. 2951. Entstanden 1540
R: Romanze, Ballade, Lied, religioeses Lied
M: 4/4
L: 1/4
K: G
d | dddd | A2A
d | cBAA | G2z
d | dddd | A2A
d | cBAA | G2z
d | ddec | d2B
e | dcBB | A2z
A | ddBB | c2A
A | ddBB | c2Ad | cBAA | G2z

@@@ Tune index: 355
